X:1
T:French Suite VI (A = 415 Hz)
T:BWV 817
T:J. S. Bach
%%score { ( 1 3 5 ) | ( 2 4 ) }
L:1/8
M:4/4
K:E
V:1 treble 
V:3 treble 
V:5 treble 
V:2 bass 
V:4 bass 
V:1
"^Allemande" B/ | G/A/B/e/ E/e/F/e/ G/A/B/e/ E/e/F/e/ | G/e/f/g/ A/g/f/e/ d/e/f/b/ B/b/=d/b/ | %3
 c/d/e/a/ A/a/c/a/ B/a/e/g/ A/B/c/f/ | G/e/B/e/ F/G/A/d/ e2- e/g/d/f/ | %5
 e/d/c/e/ g/c/e/B/ ^A/G/F/A/ c/F/e/F/ | d/c/B/d/ f/B/d/A/ G/F/E/G/ B/E/d/E/ | %7
 c/d/e/g/ f/e/d/c/ b/^a/g/f/ e/d/e/c/ | d/4c/4de/ d/4c/4d/4c/4d/4c/4B/ Bf df/^A/ | %9
 Bd/G/ AB/F/ G e2 c | ^A f2 d Bg- g/^a/b/g/ | %11
 f/4e/4d/e- e/g/f/e/ d/c/B/g/ B (4:3:4B/4^A/4B/4A/4B/4 | B/c/d/f/ b/f/d/f/ B3 z/ B/ | %13
 G/A/B/e/ E/e/F/e/ G/A/B/e/ E/e/F/e/ | G/e/f/g/ A/g/f/e/ d/e/f/b/ B/b/=d/b/ | %15
 c/d/e/a/ A/a/c/a/ B/a/e/g/ A/B/c/f/ | G/e/B/e/ F/G/A/d/ e2- e/g/d/f/ | %17
 e/d/c/e/ g/c/e/B/ ^A/G/F/A/ c/F/e/F/ | d/c/B/d/ f/B/d/A/ G/F/E/G/ B/E/d/E/ | %19
 c/d/e/g/ f/e/d/c/ b/^a/g/f/ e/d/e/c/ | d/4c/4de/ d/4c/4d/4c/4d/4c/4B/ Bf df/^A/ | %21
 Bd/G/ AB/F/ G e2 c | ^A f2 d Bg- g/^a/b/g/ | %23
 f/4e/4d/e- e/g/f/e/ d/c/B/g/ B (4:3:4B/4^A/4B/4A/4B/4 | B/c/d/f/ b/f/d/f/ B3 z/ f/ | %25
 d/e/f/b/ B/b/c/b/ d/e/f/b/ B/b/c/b/ | d/f/g/a/ B/a/g/f/ g/f/e/g/ B/g/G/g/ | %27
 ^A/^B/c/f/ d/f/B/f/ e/d/c/e/ G/e/E/e/ | F/G/A/=d/ B/d/G/d/ c/B/A/c/ e/c/a/c/ | %29
 =d/e/f/a/ d/f/A/d/ F/E/=D/F/ A/F/d/A/ | d/e/f/a/ d/f/^B/d/ F/E/D/F/ B/F/d/B/ | %31
 g/f/e/g/ c/g/A/g/ f/e/d/f/ ^B/f/G/f/ | e/d/c/e/ G/c/d/^B/ cg/e/ ce/G/ | Ac/A/ FA/C/ Df/d/ Bd/F/ | %34
 GB/G/ EG/B,/ C A2 F | D B2 G Ec- c/d/e/c/ | A/G/A- A/c/B/A/ G/F/E/c/ G/4F/4G/4F/4G/4F/4E/ | %37
 E/F/G/A/ B/E/=d/E/ c/B/A/c/ e/A/c/G/ | F/G/^A/B/ c/F/e/F/ d/c/B/d/ f/d/a/f/ | %39
 d/e/f/a/ g/f/e/d/ b/a/g/f/ e/d/c/B/ | e/B/c/A/ G/e/F/d/ e3 z/ f/ | %41
 d/e/f/b/ B/b/c/b/ d/e/f/b/ B/b/c/b/ | d/f/g/a/ B/a/g/f/ g/f/e/g/ B/g/G/g/ | %43
 ^A/^B/c/f/ d/f/B/f/ e/d/c/e/ G/e/E/e/ | F/G/A/=d/ B/d/G/d/ c/B/A/c/ e/c/a/c/ | %45
 =d/e/f/a/ d/f/A/d/ F/E/=D/F/ A/F/d/A/ | d/e/f/a/ d/f/^B/d/ F/E/D/F/ B/F/d/B/ | %47
 g/f/e/g/ c/g/A/g/ f/e/d/f/ ^B/f/G/f/ | e/d/c/e/ G/c/d/^B/ cg/e/ ce/G/ | Ac/A/ FA/C/ Df/d/ Bd/F/ | %50
 GB/G/ EG/B,/ C A2 F | D B2 G Ec- c/d/e/c/ | A/G/A- A/c/B/A/ G/F/E/c/ G/4F/4G/4F/4G/4F/4E/ | %53
 E/F/G/A/ B/E/=d/E/ c/B/A/c/ e/A/c/G/ | F/G/^A/B/ c/F/e/F/ d/c/B/d/ f/d/a/f/ | %55
 d/e/f/a/ g/f/e/d/ b/a/g/f/ e/d/c/B/ | e/B/c/A/ G/e/F/d/ !fermata!e3 z | %57
[M:3/4]"^Courante" z4 z z/ e/ | e z z/ B/c/d/ e/f/g/e/ | ba/g/ f/e/d/c/ B/ z/ z | %60
 z/ b/g/e/ c/a/f/d/ B/a/g/f/ | g/e/d/c/ B/A/G/F/ E/ z/ z | z/ g/e/c/ ^A/e/c/A/ F/e/d/c/ | %63
 d/f/d/B/ A/c/A/F/ D/c/B/A/ | G z z/ F/G/A/ B/c/d/B/ | e z z/ d/e/f/ g/^a/b/g/ | %66
 ^a/f/c/ z/ z/ c/^A/F/ z2 | z B/d/- [df] z z2 | z B/d/- [de] z z2 | z/ F/c/e/ d/c/B/d/ G/c/^A/E/ | %70
 D/B/F/D/ B,/F/G/^A/ B/F/B/E/ | D/B/F/D/ B,/F/G/^A/ B/F/B/E/ | D/F/B/d/ E/d/c/B/ E/c/B/^A/ | %73
 B z z/ C/D/F/- [FB]3/2 e/ | e z z/ B/c/d/ e/f/g/e/ | ba/g/ f/e/d/c/ B/ z/ z | %76
 z/ b/g/e/ c/a/f/d/ B/a/g/f/ | g/e/d/c/ B/A/G/F/ E/ z/ z | z/ g/e/c/ ^A/e/c/A/ F/e/d/c/ | %79
 d/f/d/B/ A/c/A/F/ D/c/B/A/ | G z z/ F/G/A/ B/c/d/B/ | e z z/ d/e/f/ g/^a/b/g/ | %82
 ^a/f/c/ z/ z/ c/^A/F/ z2 | z B/d/- [df] z z2 | z B/d/- [de] z z2 | z/ F/c/e/ d/c/B/d/ G/c/^A/E/ | %86
 D/B/F/D/ B,/F/G/^A/ B/F/B/E/ | D/B/F/D/ B,/F/G/^A/ B/F/B/E/ | D/F/B/d/ E/d/c/B/ E/c/B/^A/ | %89
 B z z/ C/D/F/- [FB]3/2 f/ | f2- f z z2 | z2 z/ ^B/d/f/ e/d/c/d/ | e/G/A/e/ d/A/G/d/ c/G/F/c/ | %93
 ^B2- B z z2 | z/ =d/B/G/ ^E/B/G/E/ C/B/A/G/ | A/F/^E/F/ ^B/F/c/F/ d/F/G/D/ | %96
 E/c/A/F/ D/A/F/D/ =C/A/G/F/ | E/D/C/=C/ ^C/D/E/F/ G/A/B/A/ | B z z/ F/G/A/ B/c/d/B/ | c2 z A ce | %100
 g/4a/4b/4a/4b/4a/4b/4a/4 b/4a/4b/4a/4b/4a/4b/4a/4 b/4a/4b/4a/4b/4a/4b/4a/4 | %101
 b/4a/4B/f/a/ g/f/e/g/ c/f/d/A/ | G/e/B/G/ E/B/c/d/ e/B/e/A/ | G/e/B/G/ E/B/c/d/ e/B/e/A/ | %104
 G/B/e/g/ A/g/f/e/ A/f/e/d/ | e z z/ F/G/B/- [Be]3/2 f/ | f2- f z z2 | z2 z/ ^B/d/f/ e/d/c/d/ | %108
 e/G/A/e/ d/A/G/d/ c/G/F/c/ | ^B2- B z z2 | z/ =d/B/G/ ^E/B/G/E/ C/B/A/G/ | %111
 A/F/^E/F/ ^B/F/c/F/ d/F/G/D/ | E/c/A/F/ D/A/F/D/ =C/A/G/F/ | E/D/C/=C/ ^C/D/E/F/ G/A/B/A/ | %114
 B z z/ F/G/A/ B/c/d/B/ | c2 z A ce | %116
 g/4a/4b/4a/4b/4a/4b/4a/4 b/4a/4b/4a/4b/4a/4b/4a/4 b/4a/4b/4a/4b/4a/4b/4a/4 | %117
 b/4a/4B/f/a/ g/f/e/g/ c/f/d/A/ | G/e/B/G/ E/B/c/d/ e/B/e/A/ | G/e/B/G/ E/B/c/d/ e/B/e/A/ | %120
 G/B/e/g/ A/g/f/e/ A/f/e/d/ | e z z/ F/G/B/- !fermata![Be]3/2 z/ |[M:3/4] z6 | %123
"^Sarabande"[Q:1/4=80] G>A G/4F/4G/4F/4G/4F/4G/4F/4 G/4F/4G/4F/4 E/F/ | E2 [EA]4 | %125
 A>B A/4G/4A/4G/4A/4G/4A/4G/4 A/4G/4A/4G/4 F/G/ | F2 F4 | B/4A/4Bc/ A3 G | cd/e/ e3 d | %129
 c/^A/B B/4A/4B/4A/4B/4A/4B/4A/4 B/4A/4B/4A/4 B | B2 B4 | %131
 G>A G/4F/4G/4F/4G/4F/4G/4F/4 G/4F/4G/4F/4 E/F/ | E2 [EA]4 | %133
 A>B A/4G/4A/4G/4A/4G/4A/4G/4 A/4G/4A/4G/4 F/G/ | F2 F4 | B/4A/4Bc/ A3 G | cd/e/ e3 d | %137
 c/^A/B B/4A/4B/4A/4B/4A/4B/4A/4 B/4A/4B/4A/4 B | B2 B4 | %139
 d>e d/4c/4d/4c/4d/4c/4d/4c/4 d/4c/4d/4c/4 ^B | ^B2 a4 | g>a f3 z/ ^e/ | ^e2 !arpeggio!b4 | %143
 a>b g3 a | b>g ^e3 f | ca ag fg/^e/ | f2 f4 | c>d e/4d/4e/4d/4e/4d/4e/4d/4 e/4d/4e/4d/4 c/d/ | %148
 e2 [eg]4 | f2 ed ec | d3 c B2 | g>a g/4a/4b/4a/4b/4a/4b/4a/4 b/4a/4b/4a/4 g/a/ | %152
 b3 a/g/ f/e/d/c/ | B/a/g/f/ e2 d>e | e2 [Be]4 | d>e d/4c/4d/4c/4d/4c/4d/4c/4 d/4c/4d/4c/4 ^B | %156
 ^B2 a4 | g>a f3 z/ ^e/ | ^e2 !arpeggio!b4 | a>b g3 a | b>g ^e3 f | ca ag fg/^e/ | f2 f4 | %163
 c>d e/4d/4e/4d/4e/4d/4e/4d/4 e/4d/4e/4d/4 c/d/ | e2 [eg]4 | f2 ed ec | d3 c B2 | %167
 g>a g/4a/4b/4a/4b/4a/4b/4a/4 b/4a/4b/4a/4 g/a/ | b3 a/g/ f/e/d/c/ | B/a/g/f/ e2 d>e | e2 [Be]4 | %171
[M:4/4]"^Gavotte"[Q:1/4=160] z4 B2 c2 | c2 d2 de f2 | f2 e2 g2 fg/a/ | g2 de/f/ e2 fg/a/ | %175
 d2 c<B B2 c2 | c2 d2 de f2 | f2 e2 c2 cd/e/ | d2 de/f/ d2 cB | B4 B2 c2 | c2 d2 de f2 | %181
 f2 e2 g2 fg/a/ | g2 de/f/ e2 fg/a/ | d2 c<B B2 c2 | c2 d2 de f2 | f2 e2 c2 cd/e/ | %186
 d2 de/f/ d2 cB | B4 d2 f2 | d2 cB ef g2 | g2 c2 f2 e2 | e2 d2 d^B c2 | ^B2 ^AG =B2 =d2 | %192
 =d2 g2 gB c2 | A4 A2 c2 | c2 f2 fd e2 | e/4d/4e/4d/4e/4d/4e/4d/4 c<B g2 a2 | a2 b2 b4- | %197
 bagf e4- | e6 d2 | e4 d2 f2 | d2 cB ef g2 | g2 c2 f2 e2 | e2 d2 d^B c2 | ^B2 ^AG =B2 =d2 | %204
 =d2 g2 gB c2 | A4 A2 c2 | c2 f2 fd e2 | e/4d/4e/4d/4e/4d/4e/4d/4 c<B g2 a2 | a2 b2 b4- | %209
 bagf e4- | e6 d2 | !fermata!e4 z4 |[M:3/4]"^Polonaise"[Q:1/4=120] g/a/b a2 g2 | %213
 fd e/4d/4e3/2- e2 | B=d dc cB | B/A/G/F/ G/4F/4G3/2 E2 | g/a/b a2 g2 | ^Ac f4 | %218
 FG/^A/ Bc/d/ ed/c/ | f/e/d/c/ B4 | g/a/b a2 g2 | fd e/4d/4e3/2- e2 | B=d dc cB | %223
 B/A/G/F/ G/4F/4G3/2 E2 | g/a/b a2 g2 | ^Ac f4 | FG/^A/ Bc/d/ ed/c/ | f/e/d/c/ B4 | d/e/f e2 d2 | %229
 af g/4f/4g3/2- g2 | ^Bf fe ed | d/c/^B/c/ d2 G2 | =d/c/^B/c/ d/c/B/c/ b2 | %233
 =d/c/^B/c/ d/c/B/c/ a2 | G^A/^B/ cd/e/ dc/B/ | c/4^B/4c3/2 c4 | %236
 G/A/B B/4A/4B/4A/4B/4A/4B/4A/4 G2 | =dB c4 | ^AB/c/ BA GF | e/d/c/e/ d2 B2- | %240
 B/c/d/e/ f/e/d/e/ A2- | A/c/d/e/ f/e/d/e/ G2- | G^A/B/ c/B/A/B/ Fd | d/e/f/d/{d} e4 | %244
 d/e/f e2 d2 | af g/4f/4g3/2- g2 | ^Bf fe ed | d/c/^B/c/ d2 G2 | =d/c/^B/c/ d/c/B/c/ b2 | %249
 =d/c/^B/c/ d/c/B/c/ a2 | G^A/^B/ cd/e/ dc/B/ | c/4^B/4c3/2 c4 | %252
 G/A/B B/4A/4B/4A/4B/4A/4B/4A/4 G2 | =dB c4 | ^AB/c/ BA GF | e/d/c/e/ d2 B2- | %256
 B/c/d/e/ f/e/d/e/ A2- | A/c/d/e/ f/e/d/e/ G2- | G^A/B/ c/B/A/B/ Fd | %259
 d/e/f/d/{!fermata!d} !fermata!e4 |[M:3/4] z6 |"^Menuet"[Q:1/4=160] GF EF GA | B2 c2 B2 | %263
 DE FG Ad | e2 f2 e2 | gf ed cB | f2 g2 f2 | B^A GF ed | c2 B4 | GF EF GA | B2 c2 B2 | DE FG Ad | %272
 e2 f2 e2 | gf ed cB | f2 g2 f2 | B^A GF ed | c2 B4 | dc Bc de | f2 g2 f2 | ag fe dc | ^Ba gf ed | %281
 ec GA Bc | =dB cA BD | EF GA Bc | F6 | GF EF GA | B2 c2 B2 | B,C DE FG | A2 B2 A2 | GB ed gf | %290
 ag fe dc | Be A/4G/4A/4G/4A/4G/4A/4G/4 FE | E6 | dc Bc de | f2 g2 f2 | ag fe dc | ^Ba gf ed | %297
 ec GA Bc | =dB cA BD | EF GA Bc | F6 | GF EF GA | B2 c2 B2 | B,C DE FG | A2 B2 A2 | GB ed gf | %306
 ag fe dc | Be A/4G/4A/4G/4A/4G/4A/4G/4 FE | !fermata!E6 |[M:4/4]"^Bourree"[Q:1/4=180] z4 z2 GA | %310
 B2 GB e2 B2 | f2 B2 g2 B2 | a2 ga bagf | agfg egfg | egdg cg^Bg | cdef gfef | dfcf Bf^Af | %317
 Bcde fg^ab | efde fefe | decd eded | cdBc dcdc | B6 GA | B2 GB e2 B2 | f2 B2 g2 B2 | a2 ga bagf | %325
 agfg egfg | egdg cg^Bg | cdef gfef | dfcf Bf^Af | Bcde fg^ab | efde fefe | decd eded | cdBc dcdc | %333
 B6 b2 | dcBc dcdB | edeB fefB | gfgB ^agaB | bfef d2 g^B | c2 g2 d2 g2 | edef gagf | egdg cg^Bg | %341
 c^Bcd efga | baba gafg | agag fg^ef | gfgf ^efde | f6 FG | A2 FA c2 A2 | f2 c2 a2 f2 | %348
 d2 Bc d2 Bd | f2 d2 b2 f2 | gafg agag | fgef gfgf | efde fefe | dedc BcAB | GBFB EBDB | %355
 EFGA Bcde | f2 B2 g2 B2 | agfg a2 b2 | g2 fe gfed | efed cBAG | ABGA BABA | GAFG AGAG | %362
 FGEF GFGF | E6 b2 | dcBc dcdB | edeB fefB | gfgB ^agaB | bfef d2 g^B | c2 g2 d2 g2 | edef gagf | %370
 egdg cg^Bg | c^Bcd efga | baba gafg | agag fg^ef | gfgf ^efde | f6 FG | A2 FA c2 A2 | %377
 f2 c2 a2 f2 | d2 Bc d2 Bd | f2 d2 b2 f2 | gafg agag | fgef gfgf | efde fefe | dedc BcAB | %384
 GBFB EBDB | EFGA Bcde | f2 B2 g2 B2 | agfg a2 b2 | g2 fe gfed | efed cBAG | ABGA BABA | %391
 GAFG AGAG | FGEF GFGF | !fermata!E6 z2 |[M:6/8]"^Gigue"[Q:1/4=120][Q:1/4=140] z4 z B | eBG EGF | %396
 G3- G2 A | BA/G/F/E/ c/B/A/G/F/E/ | DE/D/C/B,/ A3- | A/G/F/G/A/B/ cBA | %400
 G/F/E/F/G/A/ B/A/G/A/B/c/ | dBe Fed | e3- e2 g | a/g/f/e/d/c/ ^B/d/g/f/e/d/ | %404
 e/f/e/d/c/B/ ^A/c/f/e/d/c/ | d/e/d/c/B/A/ G/B/e/d/c/B/ | ^A/G/F/G/A/B/ c/B/A/B/c/d/ | %407
 e/d/c/d/e/f/ g/f/e/f/g/^a/ | b/^a/g/f/e/d/ g/f/e/d/c/B/ | ^A/c/e/g/f- fe/d/c/B/ | %410
 B/d/f/b/f/d/ B/d/f/b/f/d/ | B6- | B/=d/^e/g/e/d/ B/d/e/g/e/B/ | ^A/F/G/A/B/c/ d3- | %414
 d/G/^A/B/c/d/ e3- | e/G/F/E/D/E/ ^A/G/F/E/D/E/ | B/G/F/E/D/E/ c/G/F/E/D/E/ | d/c/B/c/d/e/ fB^A | %418
 B3- B2 B | eBG EGF | G3- G2 A | BA/G/F/E/ c/B/A/G/F/E/ | DE/D/C/B,/ A3- | A/G/F/G/A/B/ cBA | %424
 G/F/E/F/G/A/ B/A/G/A/B/c/ | dBe Fed | e3- e2 g | a/g/f/e/d/c/ ^B/d/g/f/e/d/ | %428
 e/f/e/d/c/B/ ^A/c/f/e/d/c/ | d/e/d/c/B/A/ G/B/e/d/c/B/ | ^A/G/F/G/A/B/ c/B/A/B/c/d/ | %431
 e/d/c/d/e/f/ g/f/e/f/g/^a/ | b/^a/g/f/e/d/ g/f/e/d/c/B/ | ^A/c/e/g/f- fe/d/c/B/ | %434
 B/d/f/b/f/d/ B/d/f/b/f/d/ | B6- | B/=d/^e/g/e/d/ B/d/e/g/e/B/ | ^A/F/G/A/B/c/ d3- | %438
 d/G/^A/B/c/d/ e3- | e/G/F/E/D/E/ ^A/G/F/E/D/E/ | B/G/F/E/D/E/ c/G/F/E/D/E/ | d/c/B/c/d/e/ fB^A | %442
 B3- B2 f | Bdf bga | g3- g2 g | a/g/a/b/a/g/ f/^e/f/g/a/f/ | g/f/g/a/b/g/ ^ece | %447
 g/4f/4g/4f/4g/4f/4g/4f/4g/4f/4g/4f/4 g/4f/4g/4f/4g/4f/4g/4f/4g/4f/4g/4f/4 | %448
 g/4f/4g/4f/4g/4f/4g/4f/4g/4f/4g/4f/4 g/4f/4a/g/f/^e/f/ | B/=d/c/B/^A/B/ ^e/d/c/B/A/B/ | %450
 f/=d/c/B/^A/B/ g/d/c/B/=A/G/ | A/G/F/G/A/B/ cF^E | F3- F2 A | %453
 B/4A/4B/4A/4B/4A/4B/4A/4B/4A/4B/4A/4 B/4A/4B/4A/4B/4A/4B/4A/4B/4A/4B/4A/4 | %454
 B/4A/4B/4A/4B/4A/4B/4A/4B/4A/4B/4A/4 B/4A/4B/4A/4B/4A/4c/B/A/ | G/F/E/F/G/A/ B/A/G/A/B/c/ | %456
 =d>fe/d/ c/B/A/B/c/^d/ | e/d/e/g/f/e/ d/c/B/c/d/e/ | f/e/d/e/f/g/ a3- | a/B/c/d/e/f/ g3- | %460
 g/A/B/c/d/e/ f/e/d/c/B/A/ | G/e/d/c/B/A/ GAF | E/G/B/e/B/G/ E/G/B/e/B/G/ | E6- | %464
 E/=G/^A/c/A/G/ E/G/A/c/A/G/ | e/d/c/B/a/g/ f/e/b/a/g/f/ | e3- e2 f | Bdf bga | g3- g2 g | %469
 a/g/a/b/a/g/ f/^e/f/g/a/f/ | g/f/g/a/b/g/ ^ece | %471
 g/4f/4g/4f/4g/4f/4g/4f/4g/4f/4g/4f/4 g/4f/4g/4f/4g/4f/4g/4f/4g/4f/4g/4f/4 | %472
 g/4f/4g/4f/4g/4f/4g/4f/4g/4f/4g/4f/4 g/4f/4a/g/f/^e/f/ | B/=d/c/B/^A/B/ ^e/d/c/B/A/B/ | %474
 f/=d/c/B/^A/B/ g/d/c/B/=A/G/ | A/G/F/G/A/B/ cF^E | F3- F2 A | %477
 B/4A/4B/4A/4B/4A/4B/4A/4B/4A/4B/4A/4 B/4A/4B/4A/4B/4A/4B/4A/4B/4A/4B/4A/4 | %478
 B/4A/4B/4A/4B/4A/4B/4A/4B/4A/4B/4A/4 B/4A/4B/4A/4B/4A/4c/B/A/ | G/F/E/F/G/A/ B/A/G/A/B/c/ | %480
 =d>fe/d/ c/B/A/B/c/^d/ | e/d/e/g/f/e/ d/c/B/c/d/e/ | f/e/d/e/f/g/ a3- | a/B/c/d/e/f/ g3- | %484
 g/A/B/c/d/e/ f/e/d/c/B/A/ | G/e/d/c/B/A/ GAF | E/G/B/e/B/G/ E/G/B/e/B/G/ | E6- | %488
 E/=G/^A/c/A/G/ E/G/A/c/A/G/ | e/d/c/B/a/g/ f/e/b/a/g/f/ | !fermata!e3- e2 z |] %491
V:2
 z/ | z E,G,B, EE,G,B, | EDCA, B,A,G,E, | A,G,F,E, D,E,C,A,, | %4
 B,,G,,A,,B,, z/ E,,/G,,/B,,/ E,^B,, | C,G,E,C, F,F,,^A,,C, | B,,F,D,B,, E,E,,G,,B,, | %7
 E,C,D,E, F,G,^A,F, | B,E,F,F,, B,,/C,/D,/F,/ B,/F,/B,/E,/ | %9
 D,/E,/F,/B,/ B,,/B,/D,/B,/ E,/F,/G,/C/ C,/C/E,/C/ | %10
 F,/G,/^A,/D/ D,/D/F,/D/ G,/A,/B,/E/ E,/E/G,/E/ | ^A,/B,/C/F/ F,/F/A,/F/ B,G,E,F, | %12
 B,4- B,/F,/D,/F,/ B,,3/2 z/ | z E,G,B, EE,G,B, | EDCA, B,A,G,E, | A,G,F,E, D,E,C,A,, | %16
 B,,G,,A,,B,, z/ E,,/G,,/B,,/ E,^B,, | C,G,E,C, F,F,,^A,,C, | B,,F,D,B,, E,E,,G,,B,, | %19
 E,C,D,E, F,G,^A,F, | B,E,F,F,, B,,/C,/D,/F,/ B,/F,/B,/E,/ | %21
 D,/E,/F,/B,/ B,,/B,/D,/B,/ E,/F,/G,/C/ C,/C/E,/C/ | %22
 F,/G,/^A,/D/ D,/D/F,/D/ G,/A,/B,/E/ E,/E/G,/E/ | ^A,/B,/C/F/ F,/F/A,/F/ B,G,E,F, | %24
 B,4- B,/F,/D,/F,/ B,,3/2 z/ | z B,,D,F, B,B,,D,F, | B,F,D,B,, E,E,, z E- | ED/C/ ^B,G, CC, z C- | %28
 CB,/A,/ G,E, A,A,, z A,/=G,/ | F,A,/=G,/ F,F,, z A,/G,/ F,A,/G,/ | F,F,, z F,/G,/ A,F, D,G,/F,/ | %31
 E,G,/F,/ E,F,/E,/ D,F,/E,/ D,E,/D,/ | C,F,G,G,, C,/D,/E,/G,/ C/G,/C/E,/ | %33
 F,/G,/A,/C/ A,/C/F,/A,/ B,,/C,/D,/F,/ B,/F,/B,/D,/ | %34
 E,/F,/G,/B,/ G,/B,/E,/G,/ A,,/B,,/C,/F,/ F,,/F,/A,,/F,/ | %35
 B,,/C,/D,/G,/ G,,/G,/B,,/G,/ C,/D,/E,/A,/ A,,/A,/C,/A,/ | D,/E,/F,/B,/ B,,/B,/D,/B,/ E,C,A,,B,, | %37
 E,,B,G,E, A,A,,C,E, | ^A,,C^A,F, B,B,,D,F, | B,,F,D,B,, A,,A, z F, | %40
 G,A,B,B,, E,/E,,/G,,/B,,/ E,3/2 z/ | z B,,D,F, B,B,,D,F, | B,F,D,B,, E,E,, z E- | %43
 ED/C/ ^B,G, CC, z C- | CB,/A,/ G,E, A,A,, z A,/=G,/ | F,A,/=G,/ F,F,, z A,/G,/ F,A,/G,/ | %46
 F,F,, z F,/G,/ A,F, D,G,/F,/ | E,G,/F,/ E,F,/E,/ D,F,/E,/ D,E,/D,/ | %48
 C,F,G,G,, C,/D,/E,/G,/ C/G,/C/E,/ | F,/G,/A,/C/ A,/C/F,/A,/ B,,/C,/D,/F,/ B,/F,/B,/D,/ | %50
 E,/F,/G,/B,/ G,/B,/E,/G,/ A,,/B,,/C,/F,/ F,,/F,/A,,/F,/ | %51
 B,,/C,/D,/G,/ G,,/G,/B,,/G,/ C,/D,/E,/A,/ A,,/A,/C,/A,/ | D,/E,/F,/B,/ B,,/B,/D,/B,/ E,C,A,,B,, | %53
 E,,B,G,E, A,A,,C,E, | ^A,,C^A,F, B,B,,D,F, | B,,F,D,B,, A,,A, z F, | %56
 G,A,B,B,, E,/E,,/G,,/B,,/ !fermata!E,3/2 z/ |[M:3/4] z4 z z/ z/ | %58
 z/[I:staff -1] E/F/G/ A/[I:staff +1] z/ z z2 | %59
[I:staff -1] D[I:staff +1] z z2 z/[I:staff -1] A/G/F/ | GE AA, DB, | %61
 E[I:staff +1] z z2 z/ D/C/B,/ | CD CB, ^A,F, | B,B,, C,F, B,,D, | %64
 E,/B,/C/D/ E/ z/ z z[I:staff -1] D | C/G/A/B/ c/[I:staff +1] z/ z z[I:staff -1] C | %66
 F[I:staff +1] z/[I:staff -1] ^A/ F[I:staff +1] z[I:staff -1] E/G/F/E/ | %67
 D/F/B[I:staff +1] z/ E/D/C/ B,/A,/G,/A,/ | G, z z/ A,/G,/F,/ E,/D,/C,/D,/ | ^A,,F,, B,,D, E,F, | %70
 B,,C, D,E, D,C, | B,,C, D,E, D,C, | B,,D, G,E, F,F,, | z/ B,,/D,/F,/ B,2- B,3/2 z/ | %74
 z/[I:staff -1] E/F/G/ A/[I:staff +1] z/ z z2 | %75
[I:staff -1] D[I:staff +1] z z2 z/[I:staff -1] A/G/F/ | GE AA, DB, | %77
 E[I:staff +1] z z2 z/ D/C/B,/ | CD CB, ^A,F, | B,B,, C,F, B,,D, | %80
 E,/B,/C/D/ E/ z/ z z[I:staff -1] D | C/G/A/B/ c/[I:staff +1] z/ z z[I:staff -1] C | %82
 F[I:staff +1] z/[I:staff -1] ^A/ F[I:staff +1] z[I:staff -1] E/G/F/E/ | %83
 D/F/B[I:staff +1] z/ E/D/C/ B,/A,/G,/A,/ | G, z z/ A,/G,/F,/ E,/D,/C,/D,/ | ^A,,F,, B,,D, E,F, | %86
 B,,C, D,E, D,C, | B,,C, D,E, D,C, | B,,D, G,E, F,F,, | z/ B,,/D,/F,/ B,2- B,3/2 z/ | %90
 z2 z/[I:staff -1] B/A/G/ F/E/D/F/ | ^B,2- B,[I:staff +1] z z2 | CC, B,,B, A,A,, | %93
 G,, z z/ C/^B,/^A,/ G,/F,/^E,/F,/ | ^E,G, CB, CC, | F,A, D,F, ^B,,^B, | CF, A,D, G,G,, | %97
 C,C,, z2 z2 | G,/B,/C/D/ E/ z/ z z2 | z/ A/E/C/ A,/E/C/A,/ G,/B,/A,/G,/ | %100
 F,/F/C/A,/ F,/C/A,/F,/ E,/G,/F,/E,/ | D,B,, E,G, A,B, | CB,/A,/ G,A, G,F, | E,F, G,A, G,F, | %104
 E,G, CA, B,B,, | z/ E,/G,/B,/ E2- E3/2 z/ | z2 z/[I:staff -1] B/A/G/ F/E/D/F/ | %107
 ^B,2- B,[I:staff +1] z z2 | CC, B,,B, A,A,, | G,, z z/ C/^B,/^A,/ G,/F,/^E,/F,/ | ^E,G, CB, CC, | %111
 F,A, D,F, ^B,,^B, | CF, A,D, G,G,, | C,C,, z2 z2 | G,/B,/C/D/ E/ z/ z z2 | %115
 z/ A/E/C/ A,/E/C/A,/ G,/B,/A,/G,/ | F,/F/C/A,/ F,/C/A,/F,/ E,/G,/F,/E,/ | D,B,, E,G, A,B, | %118
 CB,/A,/ G,A, G,F, | E,F, G,A, G,F, | E,G, CA, B,B,, | z/ E,/G,/B,/ E2- !fermata!E3/2 z/ | %122
[M:3/4] z6 | !arpeggio![G,B,]2 G,4 | G,2- G,/B,/A,/G,/ F,/E,/D,/E,/ | %125
 !arpeggio![F,B,]2 [G,B,]2 [^A,C]2 | B,2 B,4 | B,2 C4 | C2[I:staff -1] F3 F | %129
[I:staff +1] G,E, F,4- | F,2 F,4 | !arpeggio![G,B,]2 G,4 | G,2- G,/B,/A,/G,/ F,/E,/D,/E,/ | %133
 !arpeggio![F,B,]2 [G,B,]2 [^A,C]2 | B,2 B,4 | B,2 C4 | C2[I:staff -1] F3 F | %137
[I:staff +1] G,E, F,4- | F,2 F,4 | B,2 C4 | D2[I:staff -1] B4 |[I:staff +1] G,2 A,2 G,F, | %142
 G,2[I:staff -1] !arpeggio!c4 |[I:staff +1] F,,2 B,,2 C,2 | =D,3 D, C,B,, | A,,F,, C,2 C,,2 | %146
 F,,3 F,, A,,C, | F,2 F,,2 F,2 | G,^A, B,/4A,/4B,/4A,/4B,/4A,/4B,/4A,/4 B,/4A,/4B,/4A,/4 G,/A,/ | %149
 B,2 E,2 F,2 | B,,>C, D,/4C,/4D,/4C,/4D,/4C,/4D,/4C,/4 D,/4C,/4D,/4C,/4 B,,/C,/ | =D,2 C,4 | %152
 G,,>A,, B,,/4A,,/4B,,/4A,,/4B,,/4A,,/4B,,/4A,,/4 B,,/4A,,/4G,,/A,,/F,,/ | z2 z F, G,A,- | %154
 A,F, G,B, z2 | B,2 C4 | D2[I:staff -1] B4 |[I:staff +1] G,2 A,2 G,F, | %158
 G,2[I:staff -1] !arpeggio!c4 |[I:staff +1] F,,2 B,,2 C,2 | =D,3 D, C,B,, | A,,F,, C,2 C,,2 | %162
 F,,3 F,, A,,C, | F,2 F,,2 F,2 | G,^A, B,/4A,/4B,/4A,/4B,/4A,/4B,/4A,/4 B,/4A,/4B,/4A,/4 G,/A,/ | %165
 B,2 E,2 F,2 | B,,>C, D,/4C,/4D,/4C,/4D,/4C,/4D,/4C,/4 D,/4C,/4D,/4C,/4 B,,/C,/ | =D,2 C,4 | %168
 G,,>A,, B,,/4A,,/4B,,/4A,,/4B,,/4A,,/4B,,/4A,,/4 B,,/4A,,/4G,,/A,,/F,,/ | z2 z F, G,A,- | %170
 A,F, G,B, z2 |[M:4/4] z4 E,2 z2 | E,,2 z2 E,2 z2 | E,,2 z2 E,2 D,2 | E,2 F,2 G,2 A,2 | %175
 B,A,G,F, E,2 z2 | E,,2 z2 E,2 z2 | E,,2 E,F, G,E,D,C, | F,D,C,B,, F,2 F,,2 | B,,4 E,2 z2 | %180
 E,,2 z2 E,2 z2 | E,,2 z2 E,2 D,2 | E,2 F,2 G,2 A,2 | B,A,G,F, E,2 z2 | E,,2 z2 E,2 z2 | %185
 E,,2 E,F, G,E,D,C, | F,D,C,B,, F,2 F,,2 | B,,4 B,2 A,2 | A,2 G,2 G,F, E,2 | A,4 D,C,D,E, | %190
 F,E,F,G, A,G,A,F, | G,A,G,F, ^E,2 z2 | G,2 z2 C,2 z2 | F,G,A,B, CDEC | DCB,A, G,F,G,E, | %195
 B,A,G,F, E,2 z2 | E,,2 z2 ^E,,2 z2 | F,,G,,A,,B,, C,A,,G,,F,, | B,,G,,F,,E,, B,,2 B,,2 | %199
 E,,4 B,2 A,2 | A,2 G,2 G,F, E,2 | A,4 D,C,D,E, | F,E,F,G, A,G,A,F, | G,A,G,F, ^E,2 z2 | %204
 G,2 z2 C,2 z2 | F,G,A,B, CDEC | DCB,A, G,F,G,E, | B,A,G,F, E,2 z2 | E,,2 z2 ^E,,2 z2 | %209
 F,,G,,A,,B,, C,A,,G,,F,, | B,,G,,F,,E,, B,,2 B,,2 | !fermata!E,,4 z4 |[M:3/4] ED CE B,E | %213
 A,B, G,B, F,B, | G,E A,E G,E | F,D EE, G,B, | ED CE B,E | CE B,E ^A,E | B,D D,B, F,^A, | %219
 B,F, D,F, B,,2 | ED CE B,E | A,B, G,B, F,B, | G,E A,E G,E | F,D EE, G,B, | ED CE B,E | %225
 CE B,E ^A,E | B,D D,B, F,^A, | B,F, D,F, B,,2 | B,A, G,B, F,A, | ^B,C DF, CE, | D,C, ^B,,G, C,G, | %231
 G,,A, G,A,/G,/ F,G,/F,/ | ^E,G, C,G, E,G, | F,A, E,G, D,F, | E,D, E,F, G,G,, | C,G,, C,,G,, C,D, | %236
 E,B,, E,,E, D,E, | A,,A, E,C, E,=G, | F,C, F,,F, ^E,F, | B,,B, F,D, F,A, | G,B,, A,C, B,D, | %241
 CE, DF, ED | CB, ^A,F, B,B,, | E,B,, E,,B,, E,2 | B,A, G,B, F,A, | ^B,C DF, CE, | %246
 D,C, ^B,,G, C,G, | G,,A, G,A,/G,/ F,G,/F,/ | ^E,G, C,G, E,G, | F,A, E,G, D,F, | E,D, E,F, G,G,, | %251
 C,G,, C,,G,, C,D, | E,B,, E,,E, D,E, | A,,A, E,C, E,=G, | F,C, F,,F, ^E,F, | B,,B, F,D, F,A, | %256
 G,B,, A,C, B,D, | CE, DF, ED | CB, ^A,F, B,B,, | E,B,, E,,B,, !fermata!E,2 |[M:3/4] z6 | z6 | %262
 z E, D,E, E,,2 | z6 | z E, D,E, E,,2 | z6 | z E, D,E, E,,E, | D,2 E,2 F,2 | z B, ^A,B, B,,2 | z6 | %270
 z E, D,E, E,,2 | z6 | z E, D,E, E,,2 | z6 | z E, D,E, E,,E, | D,2 E,2 F,2 | z B, ^A,B, B,,2 | z6 | %278
 z B, ^A,B, B,,2 | z6 | z C ^B,C C,2 | z6 | z A, G,A, A,,A, | G,2 F,2 E,2 | z B, A,B, B,,2 | z6 | %286
 z B, A,B, B,,2 | z6 | z B, A,B, B,,2 | z6 | z B, A,B, B,,A, | G,A, B,2 B,,2 | E,3 B,, E,,2 | z6 | %294
 z B, ^A,B, B,,2 | z6 | z C ^B,C C,2 | z6 | z A, G,A, A,,A, | G,2 F,2 E,2 | z B, A,B, B,,2 | z6 | %302
 z B, A,B, B,,2 | z6 | z B, A,B, B,,2 | z6 | z B, A,B, B,,A, | G,A, B,2 B,,2 | %308
 E,3 B,, !fermata!E,,2 |[M:4/4] z4 z2 z2 | z2 E,F, G,F,G,E, | A,G,A,E, B,A,B,E, | CB,CE, DCDE, | %313
 E2 B,2 G,2 ^B,2 | C2 G,2 D2 G,2 | EDCD E2 ^A,2 | B,2 F,2 C2 F,2 | DCB,C D2 F,2 | %318
 CB,CB, ^A,B,G,A, | B,^A,B,A, G,F,G,F, | E,D,E,C, F,2 F,,2 | B,,6 z2 | z2 E,F, G,F,G,E, | %323
 A,G,A,E, B,A,B,E, | CB,CE, DCDE, | E2 B,2 G,2 ^B,2 | C2 G,2 D2 G,2 | EDCD E2 ^A,2 | %328
 B,2 F,2 C2 F,2 | DCB,C D2 F,2 | CB,CB, ^A,B,G,A, | B,^A,B,A, G,F,G,F, | E,D,E,C, F,2 F,,2 | %333
 B,,6 D,E, | F,2 D,F, B,2 F,2 | C2 F,2 D2 F,2 | E2 DE FEDC | EDCD B,GFG | EGDG CG^B,G | %339
 C2 GF EFED | C2 G,2 D2 G,2 | EFED CDEF | GFGF ^EDED | CB,CB, A,B,G,A, | B,CA,B, C2 C,2 | %345
 F,2 E,=D, C,B,,A,,G,, | F,,2 z4 CB, | A,2 CA, F,2 A,F, | B,A,G,B, F,B,E,B, | D,B,C,B, D,B,B,,B, | %350
 E,2 D2 C2 E,2 | D,2 C2 B,2 D,2 | C,2 B,2 ^A,2 F,2 | B,2 B,,C, D,2 B,,D, | E,2 B,,2 F,2 B,,2 | %355
 G,F,E,F, G,A,B,C | DCDB, EDEB, | FEDC B,A,G,F, | E,2 G,2 A,2 B,2 | C2 C,2 D,2 E,2 | %360
 F,E,F,E, D,E,C,D, | E,D,E,D, C,B,,C,B,, | A,,G,,A,,F,, B,,2 B,,,2 | E,,2 B,,2 E,2 D,E, | %364
 F,2 D,F, B,2 F,2 | C2 F,2 D2 F,2 | E2 DE FEDC | EDCD B,GFG | EGDG CG^B,G | C2 GF EFED | %370
 C2 G,2 D2 G,2 | EFED CDEF | GFGF ^EDED | CB,CB, A,B,G,A, | B,CA,B, C2 C,2 | %375
 F,2 E,=D, C,B,,A,,G,, | F,,2 z4 CB, | A,2 CA, F,2 A,F, | B,A,G,B, F,B,E,B, | D,B,C,B, D,B,B,,B, | %380
 E,2 D2 C2 E,2 | D,2 C2 B,2 D,2 | C,2 B,2 ^A,2 F,2 | B,2 B,,C, D,2 B,,D, | E,2 B,,2 F,2 B,,2 | %385
 G,F,E,F, G,A,B,C | DCDB, EDEB, | FEDC B,A,G,F, | E,2 G,2 A,2 B,2 | C2 C,2 D,2 E,2 | %390
 F,E,F,E, D,E,C,D, | E,D,E,D, C,B,,C,B,, | A,,G,,A,,F,, B,,2 B,,,2 | E,,2 B,,2 !fermata!E,2 z2 | %394
[M:6/8] z4 z z | z3 z z B, | EB,G, E,G,F, | G,2 z A,2 z | B,F,D, B,,D,C, | D,3- D,E,/D,/C,/B,,/ | %400
 E,B,,G,, E,,E,D, | A,G,/F,/G,/E,/ B,B,,B, | EB,G, E,G,C, | F,2 z G,^A,^B, | C,D,E, F,G,^A, | %405
 B,,C,D, E,C,E, | F,C,^A,, F,,E,D, | C,G,,E,, C,,B,,^A,, | G,,^A,,B,, E,,2 E,- | %409
 E,/G,/F,/E,/D,/C,/ B,,F,F,, | B,,2 z ^A,,2 z | G,,/B,,/D,/G,/D,/B,,/ F,,/B,,/D,/F,/D,/B,,/ | %412
 ^E,2 z C,2 z | F,3- F,/G,/^A,/B,/C/D/ | E3- E/F/E/D/C/B,/ | ^A,B,C F,2 z | G,2 z ^A,2 z | %417
 B,^A,G, D,E,F, | B,,D,F, B,2 z | z3 z z B, | EB,G, E,G,F, | G,2 z A,2 z | B,F,D, B,,D,C, | %423
 D,3- D,E,/D,/C,/B,,/ | E,B,,G,, E,,E,D, | A,G,/F,/G,/E,/ B,B,,B, | EB,G, E,G,C, | F,2 z G,^A,^B, | %428
 C,D,E, F,G,^A, | B,,C,D, E,C,E, | F,C,^A,, F,,E,D, | C,G,,E,, C,,B,,^A,, | G,,^A,,B,, E,,2 E,- | %433
 E,/G,/F,/E,/D,/C,/ B,,F,F,, | B,,2 z ^A,,2 z | G,,/B,,/D,/G,/D,/B,,/ F,,/B,,/D,/F,/D,/B,,/ | %436
 ^E,2 z C,2 z | F,3- F,/G,/^A,/B,/C/D/ | E3- E/F/E/D/C/B,/ | ^A,B,C F,2 z | G,2 z ^A,2 z | %441
 B,^A,G, D,E,F, | B,,D,F, B,2 z | z3 z z B, | E,G,B, EC=D | C2 z =D2 z | B,2 z C/B,/C/=D/C/B,/ | %447
 A,/G,/A,/B,/A,/G,/ F,/E,/F,/G,/F,/E,/ | =D,/C,/D,/E,/D,/C,/ B,,/A,,/B,,/C,/B,,/A,,/ | %449
 G,,2 z B,,2 z | =D,2 z ^E,,2 z | F,,F,=D, A,,B,,C, | F,,E/=D/C/B,/ A,/B,/C/B,/A,/G,/ | %453
 F,/G,/A,/G,/F,/E,/ D,/E,/F,/E,/D,/C,/ | B,,/C,/D,/C,/B,,/A,,/ G,,/A,,/B,,/A,,/G,,/F,,/ | %455
 E,,G,,B,, E,B,,=D, | G,/F,/E,/=D,/C,/B,,/ A,,C,E, | ^A,,C,F, B,,D,F, | A,F,A, D/C/B,/A,/G,/F,/ | %459
 E,3- E,/E,/F,/G,/A,/B,/ | C2 z D2 z | EG,A, B,A,B, | E,2 z D,2 z | %463
 C,/E,/G,/C/G,/E,/ B,,/E,/G,/B,/G,/E,/ | ^A,2 z F,2 z | B,,E,C, G,,A,,B,, | E,,G,,B,, E,2 z | %467
 z3 z z B, | E,G,B, EC=D | C2 z =D2 z | B,2 z C/B,/C/=D/C/B,/ | %471
 A,/G,/A,/B,/A,/G,/ F,/E,/F,/G,/F,/E,/ | =D,/C,/D,/E,/D,/C,/ B,,/A,,/B,,/C,/B,,/A,,/ | %473
 G,,2 z B,,2 z | =D,2 z ^E,,2 z | F,,F,=D, A,,B,,C, | F,,E/=D/C/B,/ A,/B,/C/B,/A,/G,/ | %477
 F,/G,/A,/G,/F,/E,/ D,/E,/F,/E,/D,/C,/ | B,,/C,/D,/C,/B,,/A,,/ G,,/A,,/B,,/A,,/G,,/F,,/ | %479
 E,,G,,B,, E,B,,=D, | G,/F,/E,/=D,/C,/B,,/ A,,C,E, | ^A,,C,F, B,,D,F, | A,F,A, D/C/B,/A,/G,/F,/ | %483
 E,3- E,/E,/F,/G,/A,/B,/ | C2 z D2 z | EG,A, B,A,B, | E,2 z D,2 z | %487
 C,/E,/G,/C/G,/E,/ B,,/E,/G,/B,/G,/E,/ | ^A,2 z F,2 z | B,,E,C, G,,A,,B,, | %490
 E,,G,,B,, !fermata!E,2 z |] %491
V:3
 x/ | x8 | x8 | x8 | x8 | x8 | x8 | x8 | x8 | x8 | x8 | x8 | x8 | x8 | x8 | x8 | x8 | x8 | x8 | %19
 x8 | x8 | x8 | x8 | x8 | x8 | x8 | x8 | x8 | x8 | x8 | x8 | x8 | x8 | x8 | x8 | x8 | x8 | x8 | %38
 x8 | x8 | x8 | x8 | x8 | x8 | x8 | x8 | x8 | x8 | x8 | x8 | x8 | x8 | x8 | x8 | x8 | x8 | x8 | %57
[M:3/4] x6 | x6 | x6 | x6 | x6 | x6 | x6 | x6 | x6 | x6 | D B- B z z2 | %68
[I:staff +1] G,/E/[I:staff -1] B- B z z2 | x6 | x6 | x6 | x6 | z2 z D- D3/2 z/ | x6 | x6 | x6 | %77
 x6 | x6 | x6 | x6 | x6 | x6 | D B- B z z2 |[I:staff +1] G,/E/[I:staff -1] B- B z z2 | x6 | x6 | %87
 x6 | x6 | z2 z D- D3/2 x/ | z/ e/d/c/ d z z2 | ^B,/D/F/A/ G z z2 | x6 | z/ G/F/E/ D z z2 | x6 | %95
 x6 | x6 | x6 | x6 | x6 | x6 | x6 | x6 | x6 | x6 | z2 z G- G3/2 x/ | z/ e/d/c/ d z z2 | %107
 ^B,/D/F/A/ G z z2 | x6 | z/ G/F/E/ D z z2 | x6 | x6 | x6 | x6 | x6 | x6 | x6 | x6 | x6 | x6 | x6 | %121
 z2 z G- G3/2 x/ |[M:3/4] x6 | E2[I:staff +1] ^B,4 |[I:staff -1] C2 C4 | F2 E4 | D2 D4 | D2 E4 | %128
 F2 c3 B | ED CD E2- | EC D4 | E2[I:staff +1] ^B,4 |[I:staff -1] C2 C4 | F2 E4 | D2 D4 | D2 E4 | %136
 F2 c3 B | ED CD E2- | EC D4 | [FB]2 F4 | G2 d4 | c4 B2 | c2 !arpeggio![^eg]4 | f2 f2 ^e2 | f2 B4 | %145
 z c B4- | BG [Ac]4 | x6 | B2 c4 | d2 cB ^A2 | B4 z2 | [Be]2 e4 | [Be]2 c2- c z | B2 B4- | B2 E4 | %155
 [FB]2 F4 | G2 d4 | c4 B2 | c2 !arpeggio![^eg]4 | f2 f2 ^e2 | f2 B4 | z c B4- | BG [Ac]4 | x6 | %164
 B2 c4 | d2 cB ^A2 | B4 z2 | [Be]2 e4 | [Be]2 c2- c z | B2 B4- | B2 E4 |[M:4/4] x4 G2 A2 | %172
 A2 F2 FG A2 | A2 G2 B4- | B6 c2 | F4 G2 A2 | A2 F2 FG A2 | A2 G2 B4- | B4- B2 ^A2 | B4 G2 A2 | %180
 A2 F2 FG A2 | A2 G2 B4- | B6 c2 | F4 G2 A2 | A2 F2 FG A2 | A2 G2 B4- | B4- B2 ^A2 | B4 F4- | %188
 F4 B4- | B4 A2 G2 | G2 F2 F2 E2 | D4 G4 | B4 z2 ^E2 | F4 F4 | A6 G2 | F4 B2 c2 | c2 =d2 dB c2 | %197
 c4 F2 F/G/A | G2 G/A/B G2 FE | E4 F4- | F4 B4- | B4 A2 G2 | G2 F2 F2 E2 | D4 G4 | B4 z2 ^E2 | %205
 F4 F4 | A6 G2 | F4 B2 c2 | c2 =d2 dB c2 | c4 F2 F/G/A | G2 G/A/B G2 FE | !fermata!E4 x4 | %212
[M:3/4] x6 | x6 | x6 | x6 | x6 | x6 | x6 | x6 | x6 | x6 | x6 | x6 | x6 | x6 | x6 | x6 | x6 | x6 | %230
 x6 | x6 | x6 | x6 | x6 | x6 | x6 | x6 | x6 | x6 | x6 | x6 | x6 | x6 | x6 | x6 | x6 | x6 | x6 | %249
 x6 | x6 | x6 | x6 | x6 | x6 | x6 | x6 | x6 | x6 | x6 |[M:3/4] x6 | x6 | G2 A2 G2 | x6 | G2 A2 G2 | %265
 x6 | ^A2 B2 A2 | x6 | E2 D4 | x6 | G2 A2 G2 | x6 | G2 A2 G2 | x6 | ^A2 B2 A2 | x6 | E2 D4 | x6 | %278
 d2 e2 d2 | x6 | x6 | x6 | x6 | x6 | D6 | x6 | G2 A2 G2 | x6 | F2 G2 F2 | x6 | x6 | z2 E2 D2 | %292
 z B, G,4 | x6 | d2 e2 d2 | x6 | x6 | x6 | x6 | x6 | D6 | x6 | G2 A2 G2 | x6 | F2 G2 F2 | x6 | x6 | %307
 z2 E2 D2 | z B, !fermata!G,4 |[M:4/4] x8 | x8 | x8 | x8 | x8 | x8 | x8 | x8 | x8 | x8 | x8 | x8 | %321
 x8 | x8 | x8 | x8 | x8 | x8 | x8 | x8 | x8 | x8 | x8 | x8 | x8 | x8 | x8 | x8 | x8 | x8 | x8 | %340
 x8 | x8 | x8 | x8 | x8 | x8 | x8 | x8 | x8 | x8 | x8 | x8 | x8 | x8 | x8 | x8 | x8 | x8 | x8 | %359
 x8 | x8 | x8 | x8 | x8 | x8 | x8 | x8 | x8 | x8 | x8 | x8 | x8 | x8 | x8 | x8 | x8 | x8 | x8 | %378
 x8 | x8 | x8 | x8 | x8 | x8 | x8 | x8 | x8 | x8 | x8 | x8 | x8 | x8 | x8 | x8 |[M:6/8] x6 | x6 | %396
 x6 | x6 | x6 | x6 | x6 | x6 | x6 | x6 | x6 | x6 | x6 | x6 | x6 | x6 | x6 | x6 | x6 | x6 | x6 | %415
 x6 | x6 | x6 | x6 | x6 | x6 | x6 | x6 | x6 | x6 | x6 | x6 | x6 | x6 | x6 | x6 | x6 | x6 | x6 | %434
 x6 | x6 | x6 | x6 | x6 | x6 | x6 | x6 | x6 | x6 | x6 | x6 | x6 | x6 | x6 | x6 | x6 | x6 | x6 | %453
 x6 | x6 | x6 | x6 | x6 | x6 | x6 | x6 | x6 | x6 | x6 | x6 | x6 | x6 | x6 | x6 | x6 | x6 | x6 | %472
 x6 | x6 | x6 | x6 | x6 | x6 | x6 | x6 | x6 | x6 | x6 | x6 | x6 | x6 | x6 | x6 | x6 | x6 | x6 |] %491
V:4
 x/ | x8 | x8 | x8 | x8 | x8 | x8 | x8 | x8 | x8 | x8 | x8 | x8 | x8 | x8 | x8 | x8 | x8 | x8 | %19
 x8 | x8 | x8 | x8 | x8 | x8 | x8 | x8 | x8 | x8 | x8 | x8 | x8 | x8 | x8 | x8 | x8 | x8 | x8 | %38
 x8 | x8 | x8 | x8 | x8 | x8 | x8 | x8 | x8 | x8 | x8 | x8 | x8 | x8 | x8 | x8 | x8 | x8 | x8 | %57
[M:3/4] x6 | x6 | x6 | x6 | x6 | x6 | x6 | x6 | x6 | x6 | x6 | x6 | x6 | x6 | x6 | x6 | x6 | x6 | %75
 x6 | x6 | x6 | x6 | x6 | x6 | x6 | x6 | x6 | x6 | x6 | x6 | x6 | x6 | x6 | x6 | x6 | x6 | x6 | %94
 x6 | x6 | x6 | x6 | x6 | x6 | x6 | x6 | x6 | x6 | x6 | x6 | x6 | x6 | x6 | x6 | x6 | x6 | x6 | %113
 x6 | x6 | x6 | x6 | x6 | x6 | x6 | x6 | x6 |[M:3/4] x6 | !arpeggio!E,2 D,4 | C,2- C,4 | %125
 !arpeggio!D,2 E,4 | B,,2- B,,/C,/D,/E,/ F,/G,/A,/F,/ | G,2 C2 B,2 | A,2- A,G,/F,/ B,2 | %129
 z2 F,2 F,,2 | B,,2 B,,4 | !arpeggio!E,2 D,4 | C,2- C,4 | !arpeggio!D,2 E,4 | %134
 B,,2- B,,/C,/D,/E,/ F,/G,/A,/F,/ | G,2 C2 B,2 | A,2- A,G,/F,/ B,2 | z2 F,2 F,,2 | B,,2 B,,4 | %139
 B,2 A,4 | G,2- G,/F,/A,/G,/ F,/E,/F,/D,/ | E,4 =D,2 | C,2- C,/=D,/C,/B,,/ A,,/G,,/F,,/^E,,/ | x6 | %144
 x6 | x6 | x6 | x6 | x6 | x6 | x6 | x6 | x6 | D,,E,, B,,4 | E,4 E,,2 | B,2 A,4 | %156
 G,2- G,/F,/A,/G,/ F,/E,/F,/D,/ | E,4 =D,2 | C,2- C,/=D,/C,/B,,/ A,,/G,,/F,,/^E,,/ | x6 | x6 | x6 | %162
 x6 | x6 | x6 | x6 | x6 | x6 | x6 | D,,E,, B,,4 | E,4 E,,2 |[M:4/4] x8 | x8 | x8 | x8 | x8 | x8 | %177
 x8 | x8 | x8 | x8 | x8 | x8 | x8 | x8 | x8 | x8 | x8 | x8 | x8 | x8 | x8 | x8 | x8 | x8 | x8 | %196
 x8 | x8 | x8 | x8 | x8 | x8 | x8 | x8 | x8 | x8 | x8 | x8 | x8 | x8 | x8 | x8 |[M:3/4] x6 | x6 | %214
 x6 | x6 | x6 | x6 | x6 | x6 | x6 | x6 | x6 | x6 | x6 | x6 | x6 | x6 | x6 | x6 | x6 | x6 | x6 | %233
 x6 | x6 | x6 | x6 | x6 | x6 | x6 | x6 | x6 | x6 | x6 | x6 | x6 | x6 | x6 | x6 | x6 | x6 | x6 | %252
 x6 | x6 | x6 | x6 | x6 | x6 | x6 | x6 |[M:3/4] x6 | x6 | x6 | x6 | x6 | x6 | x6 | x6 | x6 | x6 | %270
 x6 | x6 | x6 | x6 | x6 | x6 | x6 | x6 | x6 | x6 | x6 | x6 | x6 | x6 | x6 | x6 | x6 | x6 | x6 | %289
 x6 | x6 | x6 | x6 | x6 | x6 | x6 | x6 | x6 | x6 | x6 | x6 | x6 | x6 | x6 | x6 | x6 | x6 | x6 | %308
 x6 |[M:4/4] x8 | x8 | x8 | x8 | x8 | x8 | x8 | x8 | x8 | x8 | x8 | x8 | x8 | x8 | x8 | x8 | x8 | %326
 x8 | x8 | x8 | x8 | x8 | x8 | x8 | x8 | x8 | x8 | x8 | x8 | x8 | x8 | x8 | x8 | x8 | x8 | x8 | %345
 x8 | x8 | x8 | x8 | x8 | x8 | x8 | x8 | x8 | x8 | x8 | x8 | x8 | x8 | x8 | x8 | x8 | x8 | x8 | %364
 x8 | x8 | x8 | x8 | x8 | x8 | x8 | x8 | x8 | x8 | x8 | x8 | x8 | x8 | x8 | x8 | x8 | x8 | x8 | %383
 x8 | x8 | x8 | x8 | x8 | x8 | x8 | x8 | x8 | x8 | x8 |[M:6/8] x6 | x6 | x6 | x6 | x6 | x6 | x6 | %401
 x6 | x6 | x6 | x6 | x6 | x6 | x6 | x6 | x6 | x6 | x6 | x6 | x6 | x6 | x6 | x6 | x6 | x6 | x6 | %420
 x6 | x6 | x6 | x6 | x6 | x6 | x6 | x6 | x6 | x6 | x6 | x6 | x6 | x6 | x6 | x6 | x6 | x6 | x6 | %439
 x6 | x6 | x6 | x6 | x6 | x6 | x6 | x6 | x6 | x6 | x6 | x6 | x6 | x6 | x6 | x6 | x6 | x6 | x6 | %458
 x6 | x6 | x6 | x6 | x6 | x6 | x6 | x6 | x6 | x6 | x6 | x6 | x6 | x6 | x6 | x6 | x6 | x6 | x6 | %477
 x6 | x6 | x6 | x6 | x6 | x6 | x6 | x6 | x6 | x6 | x6 | x6 | x6 | x6 |] %491
V:5
 x/ | x8 | x8 | x8 | x8 | x8 | x8 | x8 | x8 | x8 | x8 | x8 | x8 | x8 | x8 | x8 | x8 | x8 | x8 | %19
 x8 | x8 | x8 | x8 | x8 | x8 | x8 | x8 | x8 | x8 | x8 | x8 | x8 | x8 | x8 | x8 | x8 | x8 | x8 | %38
 x8 | x8 | x8 | x8 | x8 | x8 | x8 | x8 | x8 | x8 | x8 | x8 | x8 | x8 | x8 | x8 | x8 | x8 | x8 | %57
[M:3/4] x6 | x6 | x6 | x6 | x6 | x6 | x6 | x6 | x6 | x6 | x6 | x6 | x6 | x6 | x6 | x6 | x6 | x6 | %75
 x6 | x6 | x6 | x6 | x6 | x6 | x6 | x6 | x6 | x6 | x6 | x6 | x6 | x6 | x6 | x6 | x6 | x6 | x6 | %94
 x6 | x6 | x6 | x6 | x6 | x6 | x6 | x6 | x6 | x6 | x6 | x6 | x6 | x6 | x6 | x6 | x6 | x6 | x6 | %113
 x6 | x6 | x6 | x6 | x6 | x6 | x6 | x6 | x6 |[M:3/4] x6 | x6 | x6 | x6 | x6 | x6 | x6 | x6 | x6 | %131
 x6 | x6 | x6 | x6 | x6 | x6 | x6 | x6 | x6 | x6 | x6 | x6 | c2 =d2 c2 | B2 G4 | x6 | x6 | x6 | %148
 x6 | x6 | x6 | x6 | x6 | x6 | x6 | x6 | x6 | x6 | x6 | c2 =d2 c2 | B2 G4 | x6 | x6 | x6 | x6 | %165
 x6 | x6 | x6 | x6 | x6 | x6 |[M:4/4] x8 | x8 | x8 | x8 | x8 | x8 | x8 | x8 | x8 | x8 | x8 | x8 | %183
 x8 | x8 | x8 | x8 | x8 | x8 | x8 | x8 | x8 | x8 | x8 | x8 | x8 | x8 | x8 | x8 | x8 | x8 | x8 | %202
 x8 | x8 | x8 | x8 | x8 | x8 | x8 | x8 | x8 | x8 |[M:3/4] x6 | x6 | x6 | x6 | x6 | x6 | x6 | x6 | %220
 x6 | x6 | x6 | x6 | x6 | x6 | x6 | x6 | x6 | x6 | x6 | x6 | x6 | x6 | x6 | x6 | x6 | x6 | x6 | %239
 x6 | x6 | x6 | x6 | x6 | x6 | x6 | x6 | x6 | x6 | x6 | x6 | x6 | x6 | x6 | x6 | x6 | x6 | x6 | %258
 x6 | x6 |[M:3/4] x6 | x6 | x6 | x6 | x6 | x6 | x6 | x6 | x6 | x6 | x6 | x6 | x6 | x6 | x6 | x6 | %276
 x6 | x6 | x6 | x6 | x6 | x6 | x6 | x6 | x6 | x6 | x6 | x6 | x6 | x6 | x6 | x6 | x6 | x6 | x6 | %295
 x6 | x6 | x6 | x6 | x6 | x6 | x6 | x6 | x6 | x6 | x6 | x6 | x6 | x6 |[M:4/4] x8 | x8 | x8 | x8 | %313
 x8 | x8 | x8 | x8 | x8 | x8 | x8 | x8 | x8 | x8 | x8 | x8 | x8 | x8 | x8 | x8 | x8 | x8 | x8 | %332
 x8 | x8 | x8 | x8 | x8 | x8 | x8 | x8 | x8 | x8 | x8 | x8 | x8 | x8 | x8 | x8 | x8 | x8 | x8 | %351
 x8 | x8 | x8 | x8 | x8 | x8 | x8 | x8 | x8 | x8 | x8 | x8 | x8 | x8 | x8 | x8 | x8 | x8 | x8 | %370
 x8 | x8 | x8 | x8 | x8 | x8 | x8 | x8 | x8 | x8 | x8 | x8 | x8 | x8 | x8 | x8 | x8 | x8 | x8 | %389
 x8 | x8 | x8 | x8 | x8 |[M:6/8] x6 | x6 | x6 | x6 | x6 | x6 | x6 | x6 | x6 | x6 | x6 | x6 | x6 | %407
 x6 | x6 | x6 | x6 | x6 | x6 | x6 | x6 | x6 | x6 | x6 | x6 | x6 | x6 | x6 | x6 | x6 | x6 | x6 | %426
 x6 | x6 | x6 | x6 | x6 | x6 | x6 | x6 | x6 | x6 | x6 | x6 | x6 | x6 | x6 | x6 | x6 | x6 | x6 | %445
 x6 | x6 | x6 | x6 | x6 | x6 | x6 | x6 | x6 | x6 | x6 | x6 | x6 | x6 | x6 | x6 | x6 | x6 | x6 | %464
 x6 | x6 | x6 | x6 | x6 | x6 | x6 | x6 | x6 | x6 | x6 | x6 | x6 | x6 | x6 | x6 | x6 | x6 | x6 | %483
 x6 | x6 | x6 | x6 | x6 | x6 | x6 | x6 |] %491

